X: 111
T: Mrs Helen Shepherd of Dunecht
C: Bert Murray
R: reel
B: Bert Murray's "Bon Accord Collection" 1999 p.11
%
N: Mrs H. Shepherd is the mother of the well known broadcaster Robbie Shepherd.
Z: 2011 John Chambers <jc:trillian.mit.edu>
M: C
L: 1/8
K: Am
vcB |\
A2(AB) cBAG | EAcd e2(dc) | BGDC B,DGA | BGdB edcB |
A2(AB) cBAG | EAcd e2(e^f) | g^fge dBGB | c2A2 A2 ||
(eg) |\
a2(ag) aged | cAEA cde^f | g2(a/g/^f) gdBd | g^fed Bdeg |
a2(ag) aged | cAEA cde^f | g^fge dBGB | c2A2 A2 |]

%%sep 2 1 500

